X:1
T: Ladies' Triumph Hornpipe
T: Lord Moira's Hornpipe
R:Reel
Q: 232
K:F
M:4/4
L:1/8
|:C2|CF F2 Ac c2|BG AF EG EC|CF F2 Ac c2|df eg f2 a2|
CF F2 Ac c2|BG AF EG EC|CF F2 Ac c2|df eg f2:|
|:c2|fg af ge ce|de fd cA FA|fg af ge ce|df eg f2 fg|
af ge fd ec|de fd cA FA|af ge fd ec|df eg f2:|
|:cB|AF cA dF cF|AF cF GA Bc|AF cF dF AF|df eg f2 cB|
AF cA dF cF|AF cF GA Bc|AF cF dF cF|df eg f2:|
